X:1
T:Entry March of Act III
T:Entry March of Act III
T:Swan Lake, Piano Arrangement for 3 hands
T:Hinci
C:Hinci
%%score { ( 1 4 ) | 2 | ( 3 5 ) }
L:1/8
Q:1/4=142
M:2/4
K:C
V:1 treble nm="Piano" snm="Pno."
V:4 treble 
V:2 bass 
V:3 bass 
V:5 bass 
V:1
"^Allegro giusto."!>(! xx!>)!!p!!<(! xx | z4!<)! |!f! !>![gbd'] z z2 | !>![g^a^c'] z z2 | %4
 !>![gbd'] z z2 | !>![gbe'] z z2 | !>![gbf'] z z2 | !>![gb^c'g'] z z2 | !>![gbd'] z z2 | %9
 !>![gbe'] z z2 | !>![gbf']G !>![g^a^c']G | !>![gbd']G !>![gbe']G | !>![gbf']G !>![g^a^c']G | %13
 !>![gbd']G !>![gbe']G | !>![gbf'] z z2 | z2 z!ff! [Gg] | [cegc']>[cc'] [cegc'][dd'] | %17
 [ea^c'e']3 [ee'] | [dad'][cc'] [Bgb][dd'] | [cgc'][Bb] [A^fa][cc'] | [Bfb][Aa] [Gfg][Aa] | %21
 [Geg][Aa] [Geg][cc'] | [d^fd'][ee'] [dfd'][ee'] | (d'/e'/g'/f'/ e'/d'/c'/b/) | %24
 [cegc']>[cc'] [cegc'][dd'] | [ea^c'e']3 [ee'] | [dad'][cc'] [Bgb][dd'] | [cgc'][Bb] [A^fa][cc'] | %28
 [Bfb][Aa] [Gfg][Aa] | [Geg][Aa] [Geg][cc'] | [d^fd'][ee'] [dfd'][ee'] | %31
 (c'/e'/g'/e'/ c'/b/c'/d'/ | e')!mf![B,DE] [CEA][E^GB] | ce/d/ cB | A^G EG | A^G EG | AE AB | %37
 ce/d/ cB | A^G EG | A^G EG | [CEA][Ee] [Aa][Bb] | [cc'][ee']/[dd']/ [cc'][Bb] | %42
 [Aa][^G^g] [Ee][Gg] | [Aa][^G^g] [Ee][Gg] | [Aa][Ee] [Aa][Bb] | [cc'][ee']/[dd']/ [cc'][Bb] | %46
 [Aa][^G^g] [Ee][Gg] | [Aa][^G^g] [Ee][Gg] |!f! [Acea]e ab | [ceac']d'/c'/ b[Ada] | %50
 [d^gb] z [cea] z | [Ae] z [Ad^f] z | [Bdg]e ab | [ceac']d'/c'/ b[Ada] | [d^gb] z [cea] z | %55
 [Ae] z [Ad^f] z | [Bdg] z/ [G,G]/ [G,G][A,A] |!f! !>![g^a^c'] z z2 | !>![gbd'] z z2 | %59
 !>![gbe'] z z2 | !>![gbf'] z z2 | !>![gb^c'g'] z z2 | !>![gbd'] z z2 | !>![gbe'] z z2 | %64
 !>![gbf']G !>![g^a^c']G | !>![gbd']G !>![gbe']G | !>![gbf']G !>![g^a^c']G | %67
 !>![gbd']G !>![gbe']G | !>![gbf'] z z2 | z2 z!ff! [Gg] | [cegc']>[cc'] [cegc'][dd'] | %71
 [ea^c'e']3 [ee'] | [dad'][cc'] [Bgb][dd'] | [cgc'][Bb] [A^fa][cc'] | [Bfb][Aa] [Gfg][Aa] | %75
 [Geg][Aa] [Geg][cc'] | [d^fd'][ee'] [dfd'][ee'] | (d'/e'/g'/f'/ e'/d'/c'/b/) | %78
 [cegc']>[cc'] [cegc'][dd'] | [ea^c'e']3 [ee'] | [dad'][cc'] [Bgb][dd'] | [cgc'][Bb] [A^fa][cc'] | %82
 [Bfb][Aa] [Gfg][Aa] | [Geg][Aa] [Geg][cc'] | [d^fd'][ee'] [dfd'][ee'] | [cec'] z!mf! [E_Bc]2 | %86
 [DF]2 [EG]2 | [FA]2 [Ec]2 | [DF]2 (3([EG][DF][EG]) | [FA]2 [Ec]2 | [DF]2 [EG]2 | [FA]2 [Ec]2 | %92
 [DF]2 (3([EG][FA][EG]) | [A,CF]2!f! [_Bec']2 | [Fdf]2 [Geg]2 | [Afa]2 [ec']2 | %96
 [Fdf]2 (3([Geg][Fdf][Geg]) | [Afa]2 [ec']2 | [Fdf]2 [Geg]2 | [Afa]2 [ec']2 | %100
 [Fdf]2 (3([Geg][Afa][Geg]) | [FAcf]2 z2 | [F^df]4 | ([Ee]2 [^F^f]2 | [^Ge^g]2 [Aea]2) | z4 | %106
 [Aga]4 | ([Gg]2 [Aa]2 | [Bgb]2 [cgc']2) | z2 [cg_bc'] z | z2 [cg_bc'] z | z2 [EG_B] z | %112
 z2 [CG_B] z |!f! c>[Cc] [Cc][Dd] | [Ee]>[Ee] [Ee][Gg] |!>(! [cc']>[cc'] [cc'][cc']!>)! | %116
!mf! z2 [E_Bc]2 | [DF]2 [EG]2 | [FA]2 [Ec]2 | [DF]2 (3([EG][DF][EG]) | [FA]2 [Ec]2 | [DF]2 [EG]2 | %122
 [FA]2 [Ec]2 | [DF]2 (3([EG][FA][EG]) | [A,CF]2!f! [_Bec']2 | [Fdf]2 [Geg]2 | [Afa]2 [ec']2 | %127
 [Fdf]2 (3([Geg][Fdf][Geg]) | [Afa]2 [ec']2 | [Fdf]2 [Geg]2 | [Afa]2 [gc']2 | %131
 !>![dd']2 (3([dd'][ee'][dd']) |!f! !>![gbg'] z/ [G,G]/ [G,G][A,A] | [G,G]>[G,G] [G,G][A,A] | %134
!f! !>![g^a^c'] z z2 | !>![gbd'] z z2 | !>![gbe'] z z2 | !>![gbf'] z z2 | !>![gb^c'g'] z z2 | %139
 !>![gbd'] z z2 | !>![gbe'] z z2 | !>![gbf']G !>![g^a^c']G | !>![gbd']G !>![gbe']G | %143
 !>![gbf']G !>![g^a^c']G | !>![gbd']G !>![gbe']G | !>![gbf'] z z2 | z2 z!ff! [Gg] | %147
 [cegc']>[cc'] [cegc'][dd'] | [ea^c'e']3 [ee'] | [dad'][cc'] [Bgb][dd'] | [cgc'][Bb] [A^fa][cc'] | %151
 [Bfb][Aa] [Gfg][Aa] | [Geg][Aa] [Geg][cc'] | [d^fd'][ee'] [dfd'][ee'] | %154
 (d'/e'/g'/f'/ e'/d'/c'/b/) | [cegc']>[cc'] [cegc'][dd'] | [ea^c'e']3 [ee'] | %157
 [dad'][cc'] [Bgb][dd'] | [cgc'][Bb] [A^fa][cc'] | [Bfb][Aa] [Gfg][Aa] | [Geg][Aa] [Geg][cc'] | %161
 [d^fd'][ee'] [dfd'][ee'] | (c'/b/c'/d'/ e'/d'/e'/f'/) | [gg']4 | (c'/b/c'/d'/ e'/d'/e'/f'/) | %165
 [gg'-]4 | g'/(e'/f'/g'/ a'/g'/f'/e'/ | f'/)(d'/e'/f'/ g'/f'/e'/d'/ | e'/)(e'/f'/g'/ a'/g'/f'/e'/ | %169
 f'/)(d'/e'/f'/ g'/f'/e'/d'/ | [cec']) z!ff! !>!d/d'/g/g'/ | !>!e/e'/g/g'/ !>!d/d'/g/g'/ | %172
 !>!e/e'/g/g'/ !>!d/d'/g/g'/ | !>!e/e'/g/g'/ !>!d/d'/g/g'/ | %174
[Q:1/4=118] [cec']2[Q:1/4=100] [cec']2 | !>![CEc]4- | [CEc]4 |] %177
V:2
 !///-![G,,,B,,,]2 [D,,G,,]2 | !///-![G,,,B,,,]2 [D,,G,,]2 | !>![G,,G,]>[G,G] [G,G][A,A] | %3
 !>![G,,G,]>[G,G] [G,G][A,A] | !>![G,,G,]>[G,G] [G,G][A,A] | !>![G,,G,]>[G,G] [G,G][A,A] | %6
 !>![G,,G,]>[G,G] [G,G][A,A] | !>![G,,G,]>[G,G] [G,G][A,A] | !>![G,,G,]>[G,G] [G,G][A,A] | %9
 !>![G,,G,]>[G,G] [G,G][A,A] | !>![G,,G,]G, !>![G,,G,]G, | !>![G,,G,]G, !>![G,,G,]G, | %12
 !>![G,,G,]G, !>![G,,G,]G, | !>![G,,G,]G, !>![G,,G,]G, | !>![G,,G,]!>![G,G] !>![F,F]!>![E,E] | %15
 !>![D,D]!>![C,C] !>![B,,B,][G,,G,] | [C,C]2 [_B,,_B,]2 | [A,,A,]2 [G,,G,]2 | %18
 [^F,,^F,] z [=F,,=F,] z | [E,,E,] z [_E,,_E,] z | [D,,D,] z [_D,,_D,] z | %21
 [C,,C,] z [_B,,,_B,,] z | A,, z _A,, z | [G,,D,G,] z z2 | [C,C]2 [_B,,_B,]2 | [A,,A,]2 [G,,G,]2 | %26
 [^F,,^F,] z [=F,,=F,] z | [E,,E,] z [_E,,_E,] z | [D,,D,] z [_D,,_D,] z | %29
 [C,,C,] z [_B,,,_B,,] z | A,, z _A,, z | !>![C,,C,] z z2 | [E,,E,]E, A,E, | !/-!A,2 E,2 | %34
 !/-!A,2 E,2 | !/-!A,2 E,2 | !/-!A,2 E,2 | !/-!A,2 E,2 | !/-!A,2 E,2 | !/-!A,2 E,2 | !/-!A,2 E,2 | %41
 !/-!A,2 E,2 | !/-!A,2 E,2 | !/-!A,2 E,2 | !/-!A,2 E,2 | !/-!A,2 E,2 | !/-!A,2 E,2 | !/-!A,2 E,2 | %48
 [A,,A,] z z2 | [G,,G,] z z [^F,,^F,] | [F,,F,][E,,E,] [A,,A,][B,,B,] | %51
 [C,C][D,D]/[C,C]/ [B,,B,][A,,A,] | [G,,G,] z z2 | [G,,G,] z z [^F,,^F,] | %54
 [F,,F,][E,,E,] [A,,A,][B,,B,] | [C,C][D,D]/[C,C]/ [B,,B,][A,,A,] | %56
!mf! !///-![G,,,B,,,]2 [D,,G,,]2 | !>![G,,G,]>[G,G] [G,G][A,A] | !>![G,,G,]>[G,G] [G,G][A,A] | %59
 !>![G,,G,]>[G,G] [G,G][A,A] | !>![G,,G,]>[G,G] [G,G][A,A] | !>![G,,G,]>[G,G] [G,G][A,A] | %62
 !>![G,,G,]>[G,G] [G,G][A,A] | !>![G,,G,]>[G,G] [G,G][A,A] | !>![G,,G,]G, !>![G,,G,]G, | %65
 !>![G,,G,]G, !>![G,,G,]G, | !>![G,,G,]G, !>![G,,G,]G, | !>![G,,G,]G, !>![G,,G,]G, | %68
 !>![G,,G,]!>![G,G] !>![F,F]!>![E,E] | !>![D,D]!>![C,C] !>![B,,B,][G,,G,] | [C,C]2 [_B,,_B,]2 | %71
 [A,,A,]2 [G,,G,]2 | [^F,,^F,] z [=F,,=F,] z | [E,,E,] z [_E,,_E,] z | [D,,D,] z [_D,,_D,] z | %75
 [C,,C,] z [_B,,,_B,,] z | A,, z _A,, z | [G,,D,G,] z z2 | [C,C]2 [_B,,_B,]2 | [A,,A,]2 [G,,G,]2 | %80
 [^F,,^F,] z [=F,,=F,] z | [E,,E,] z [_E,,_E,] z | [D,,D,] z [_D,,_D,] z | %83
 [C,,C,] z [_B,,,_B,,] z | A,, z _A,, z | [C,,C,] z C,2 | F,2 C,2 | F,2 C,2 | F,2 C,2 | F,2 C,2 | %90
 F,2 C,2 | F,2 C,2 | F,2 C,2 | [F,,F,]2 [C,,C,]2 | [F,,F,]2 [C,,C,]2 | [F,,F,]2 [C,,C,]2 | %96
 [F,,F,]2 [C,,C,]2 | [F,,F,]2 [C,,C,]2 | [F,,F,]2 [C,,C,]2 | [F,,F,]2 [C,,C,]2 | %100
 [F,,F,]2 [C,,C,]2 |!mf! F,>!8vb(![F,,,F,,] [F,,,F,,][G,,,G,,] | %102
 [A,,,A,,]>[A,,,A,,] [A,,,A,,][B,,,B,,] | [C,,C,]>[C,,C,] [C,,C,][D,,D,]!8vb)! | %104
 E,/D,/C,/B,,/ C,/D,/C,/B,,/ |!8vb(! [A,,,A,,]>[A,,,A,,] [A,,,A,,][B,,,B,,] | %106
 [C,,C,]>[C,,C,] [C,,C,][D,,D,] | [E,,E,]>[E,,E,] [E,,E,][F,,F,]!8vb)! | %108
 G,/A,/G,/F,/ E,/F,/E,/D,/ | C,>C, C,D, | E,>E, E,G, |!f! C>[C,C] [C,C][D,D] | %112
 [E,E]>[E,E] [E,E][G,G] | z2!mf! [C,E,G,_B,] z | z2 [C,E,G,_B,] z | z4 | z2 C,2 | F,2 C,2 | %118
 F,2 C,2 | F,2 C,2 | F,2 C,2 | F,2 C,2 | F,2 C,2 | F,2 C,2 | [F,,F,]2 [C,,C,]2 | %125
 [F,,F,]2 [C,,C,]2 | [F,,F,]2 [C,,C,]2 | [F,,F,]2 [C,,C,]2 | [F,,F,]2 [C,,C,]2 | %129
 [F,,F,]2 [C,,C,]2 | [F,,F,]2 [E,,E,]2 | !>![D,,D,]2 _A,,2 | %132
 !>![B,,G,B,]!mf! !///-![G,,,B,,,]3/2 [D,,G,,]3/2 | !///-![G,,,B,,,]2 [D,,G,,]2 | %134
 !>![G,,G,]>[G,G] [G,G][A,A] | !>![G,,G,]>[G,G] [G,G][A,A] | !>![G,,G,]>[G,G] [G,G][A,A] | %137
 !>![G,,G,]>[G,G] [G,G][A,A] | !>![G,,G,]>[G,G] [G,G][A,A] | !>![G,,G,]>[G,G] [G,G][A,A] | %140
 !>![G,,G,]>[G,G] [G,G][A,A] | !>![G,,G,]G, !>![G,,G,]G, | !>![G,,G,]G, !>![G,,G,]G, | %143
 !>![G,,G,]G, !>![G,,G,]G, | !>![G,,G,]G, !>![G,,G,]G, | !>![G,,G,]!>![G,G] !>![F,F]!>![E,E] | %146
 !>![D,D]!>![C,C] !>![B,,B,][G,,G,] | [C,C]2 [_B,,_B,]2 | [A,,A,]2 [G,,G,]2 | %149
 [^F,,^F,] z [=F,,=F,] z | [E,,E,] z [_E,,_E,] z | [D,,D,] z [_D,,_D,] z | %152
 [C,,C,] z [_B,,,_B,,] z | A,, z _A,, z | [G,,D,G,] z z2 | [C,C]2 [_B,,_B,]2 | [A,,A,]2 [G,,G,]2 | %157
 [^F,,^F,] z [=F,,=F,] z | [E,,E,] z [_E,,_E,] z | [D,,D,] z [_D,,_D,] z | %160
 [C,,C,] z [_B,,,_B,,] z | A,, z _A,, z | [C,,C,] z z2 | z G,, [C,,C,]G,, | [C,,C,] z z2 | %165
 z G,, [C,,C,]G,, | [C,,C,] z A,,2 | [D,,D,]2 G,,2 | [C,,C,] z A,,2 | [D,,D,]2 G,,2 | %170
 [C,,C,] z !>![G,,D,G,]2 | !>![C,E,]2 !>![G,,D,G,]2 | !>![C,E,]2 !>![G,,D,G,]2 | %173
 !>![C,E,]2 !>![G,,D,G,]2 | C,2 [G,,C,G,]2 | !///-!C,,2 C,2 | !///-!C,,2 C,2 |] %177
V:3
 z4 | z4 |[K:treble] !>![GBd] z z2 | !>![^A^c] z z2 | !>![GBd] z z2 | !>![G^ce] z z2 | %6
 !>![Gdf] z z2 | !>![G^A^c] z z2 | !>![GBd] z z2 | !>![G^ce] z z2 | !>![Gdf] z !>![G^A^c] z | %11
 !>![GBd] z !>![GB^ce] z | !>![GBdf] z !>![G^A^c] z | !>![GBd] z !>![GB^ce] z | !>![GBdf] z z2 | %15
 z2 z z | [EG]2 [EG] z | [^CA]4 | [DA] z [B,DG] z | [G,G] z [^F,^F] z | [F,F] z [F,F] z | %21
 [G,E] z [CG] z | [CD]E [CD]E | (d/e/g/f/ e/d/c/B/) | [EG]2 [EG] z | [^CA]4 | [DA] z [B,DG] z | %27
 [G,G] z [^F,^F] z | [F,F] z [F,F] z | [G,E] z [CG] z | [CD]E [CD]E | (e/e/g/e/ c/B/c/d/ | %32
 e) z z2 | z4 | z4 | z4 | !>!E>!>!E !>!E z | z4 | z4 | !>!E>!>!E !>!E z | z4 | z4 | %42
 !>![Ee]>!>![Ee] !>![Ee] z | z4 | !>![Ee]>!>![Ee] !>![Ee] z | z4 | z4 | !>![Ee]>!>![Ee] !>![Ee] z | %48
 z4 | [CEA] z z [DA] | [D^GB] z [CEA] z | [EA] z [D^F] z | [B,DG] z z2 | [CEA] z z [DA] | %54
 [D^GB] z [CEA] z | [EA] z [D^F] z | [B,DG] z z2 | !>![^A^c] z z2 | !>![GBd] z z2 | %59
 !>![G^ce] z z2 | !>![Gdf] z z2 | !>![G^A^c] z z2 | !>![GBd] z z2 | !>![G^ce] z z2 | %64
 !>![Gdf] z !>![G^A^c] z | !>![GBd] z !>![GB^ce] z | !>![GBdf] z !>![G^A^c] z | %67
 !>![GBd] z !>![GB^ce] z | !>![GBdf] z z2 | z2 z z | [EG]2 [EG] z | [^CA]4 | [DA] z [B,DG] z | %73
 [G,G] z [^F,^F] z | [F,F] z [F,F] z | [G,E] z [CG] z | [CD]E [CD]E | (d/e/g/f/ e/d/c/B/) | %78
 [EG]2 [EG] z | [^CA]4 | [DA] z [B,DG] z | [G,G] z [^F,^F] z | [F,F] z [F,F] z | [G,E] z [CG] z | %84
 [CD]E [CD]E | z4 | z4 | z4 | z4 | z4 | z4 | z4 | z4 | z4 | z4 | z4 | z4 | z4 | z4 | z4 | z4 | z4 | %102
 z4 | z4 | z4 | z4 | z4 | z4 | z4 | z4 | z4 | z4 | z4 | z4 | z4 | z4 | [cc']>!mp![cc'] [cc'][cc'] | %117
 [cc']>[cc'] [cc'][cc'] | [cc']>[cc'] [cc'][cc'] | [cc']>[cc'] [cc'][cc'] | %120
 [cc']>[cc'] [cc'][cc'] | [cc']>[cc'] [cc'][cc'] | [cc']>[cc'] [cc'][cc'] | %123
 [cc']>[cc'] [cc'][cc'] | [cc']>[cc'] [cc']2 | z4 | z4 | z4 | z4 | z4 | z4 | z4 | z4 | z4 | %134
 !>![^A^c] z z2 | !>![GBd] z z2 | !>![G^ce] z z2 | !>![Gdf] z z2 | !>![G^A^c] z z2 | %139
 !>![GBd] z z2 | !>![G^ce] z z2 | !>![Gdf] z !>![G^A^c] z | !>![GBd] z !>![GB^ce] z | %143
 !>![GBdf] z !>![G^A^c] z | !>![GBd] z !>![GB^ce] z | !>![GBdf] z z2 | z2 z z | [EG]2 [EG] z | %148
 [^CA]4 | [DA] z [B,DG] z | [G,G] z [^F,^F] z | [F,F] z [F,F] z | [G,E] z [CG] z | [CD]E [CD]E | %154
 (d/e/g/f/ e/d/c/B/) | [EG]2 [EG] z | [^CA]4 | [DA] z [B,DG] z | [G,G] z [^F,^F] z | %159
 [F,F] z [F,F] z | [G,E] z [CG] z | [CD]E [CD]E | (c/B/c/d/ e/d/e/f/) | z4 | (c/B/c/d/ e/d/e/f/) | %165
 z4 | z/ (e/f/g/ a/g/f/e/ | f/)(d/e/f/ g/f/e/d/ | e/)(e/f/g/ a/g/f/e/ | f/)(d/e/f/ g/f/e/d/) | %170
 c/c'/g/g'/ !trill(!Tg'2- | g'4- | !trill)!g'4- | g'4({^f'g')} | [CE]2 [CE]2 | z4 | z4 |] %177
V:4
 x4 | x4 | x4 | x4 | x4 | x4 | x4 | x4 | x4 | x4 | x4 | x4 | x4 | x4 | x4 | x4 | x4 | x4 | x4 | %19
 x4 | x4 | x4 | x4 | x4 | x4 | x4 | x4 | x4 | x4 | x4 | x4 | x4 | x4 | [EA][FA] [EA][D^G] | %34
 [CE][B,E] [A,C][B,E] | [CE][B,E] [A,C][B,E] | [CE][B,D] [CE][E^G] | [EA][FA] [EA][D^G] | %38
 [CE][B,E] [A,C][B,E] | [CE][B,E] [A,C][B,E] | z [Bd] [ce][e^g] | [ea][fa] [ea][d^g] | %42
 [ce][Be] [Ac][Be] | [ce][Be] [Ac][Be] | [ce][Bd] [ce][e^g] | [ea][fa] [ea][d^g] | %46
 [ce][Be] [Ac][Be] | [ce][Be] [Ac][Be] | x4 | x4 | x4 | x4 | x4 | x4 | x4 | x4 | x4 | x4 | x4 | %59
 x4 | x4 | x4 | x4 | x4 | x4 | x4 | x4 | x4 | x4 | x4 | x4 | x4 | x4 | x4 | x4 | x4 | x4 | x4 | %78
 x4 | x4 | x4 | x4 | x4 | x4 | x4 | x4 | A,2 _B,2 | C2 _B,2 | A,2 _B,2 | C2 _B,2 | A,2 _B,2 | %91
 C2 _B,2 | A,2 _B,2 | x4 | A2 _B2 | c2 _B2 | A2 _B2 | c2 _B2 | A2 _B2 | c2 _B2 | A2 _B2 | x4 | x4 | %103
 x4 | x4 | x4 | x4 | x4 | x4 | x4 | x4 | x4 | x4 | x4 | x4 | x4 | x4 | A,2 _B,2 | C2 _B,2 | %119
 A,2 _B,2 | C2 _B,2 | A,2 _B,2 | C2 _B,2 | A,2 _B,2 | x4 | A2 _B2 | c2 _B2 | A2 _B2 | c2 _B2 | %129
 A2 _B2 | c2 c2 | [^fc']2 [fc']2 | x4 | x4 | x4 | x4 | x4 | x4 | x4 | x4 | x4 | x4 | x4 | x4 | x4 | %145
 x4 | x4 | x4 | x4 | x4 | x4 | x4 | x4 | x4 | x4 | x4 | x4 | x4 | x4 | x4 | x4 | x4 | x4 | %163
 z [Bdg] [ceg][Bdg] | [ceg] z z2 | z [Bdg] [ceg][Bdg] | x4 | a2 g2 | x4 | a2 g2 | x4 | x4 | x4 | %173
 x4 | x4 | x4 | x4 |] %177
V:5
 x4 | x4 |[K:treble] x4 | x4 | x4 | x4 | x4 | x4 | x4 | x4 | x4 | x4 | x4 | x4 | x4 | x4 | x4 | %17
 x4 | x4 | x4 | x4 | x4 | x4 | x4 | x4 | x4 | x4 | x4 | x4 | x4 | x4 | x4 | x4 | x4 | x4 | x4 | %36
 x4 | x4 | x4 | x4 | x4 | x4 | x4 | x4 | x4 | x4 | x4 | x4 | x4 | x4 | x4 | x4 | x4 | x4 | x4 | %55
 x4 | x4 | x4 | x4 | x4 | x4 | x4 | x4 | x4 | x4 | x4 | x4 | x4 | x4 | x4 | x4 | x4 | x4 | x4 | %74
 x4 | x4 | x4 | x4 | x4 | x4 | x4 | x4 | x4 | x4 | x4 | x4 | x4 | x4 | x4 | x4 | x4 | x4 | x4 | %93
 x4 | x4 | x4 | x4 | x4 | x4 | x4 | x4 | x4 | x4 | x4 | x4 | x4 | x4 | x4 | x4 | x4 | x4 | x4 | %112
 x4 | x4 | x4 | x4 | x4 | x4 | x4 | x4 | x4 | x4 | x4 | x4 | x4 | x4 | x4 | x4 | x4 | x4 | x4 | %131
 x4 | x4 | x4 | x4 | x4 | x4 | x4 | x4 | x4 | x4 | x4 | x4 | x4 | x4 | x4 | x4 | x4 | x4 | x4 | %150
 x4 | x4 | x4 | x4 | x4 | x4 | x4 | x4 | x4 | x4 | x4 | x4 | x4 | x4 | x4 | x4 | [ceg] z [^ce]2 | %167
 d2 [Bd]2 | c2 [^ce]2 | d2 [Bd]2 | x4 | x4 | x4 | x4 | x4 | x4 | x4 |] %177

